X:047
T: Humour of Ballinamult
N: O'Farrell's Pocket Companion v.1 (Sky ed. p.38)
N: "Irish"
D: O'Sullivan Meets O'Farrell track 3a
M: 6/8
L: 1/8
R: jig
Q: 320
K: Edor
A|B3 EFE|BAG FED|B3 EFE|BAB dAF|
B3 EFE|BAG FED|A2D FDF|A3 AGF :|
P:2
EFE E2F|DED D2F|EFE E2d|B3 BAF|
EFE E2F|DED DFG|A2D FDF|A3 AGF :|
P:3
B2c d2e|fdB AGF|B2c d2e|f2e fdB|
B2c d2e|fdB AGF|DED FDF|A3 AGF ||
